;FLAVOR:Marlin
;TIME:7431
;Filament used: 7.90212m
;Layer height: 0.2
;Generated with Cura_SteamEngine 3.5.1
M82 ;absolute extrusion mode
;Start heating
M140 S50.0
G28 ;Home
G29 ;Bedlevel
G1 X0 Y0 Z20 F5000
G92 E0; Reset Extruder
M190 S50.0
M109 S190.0
M104 S200.0
;Wipe nozzle
M106 S255
G1 Y-0.4 Z0.4
G1 F500 Y40 E15 ;Make wipe line
G0 Y100 Z5
G1 Z0.2 F500
G0 Z5
M106 S0
M82
G90
G92 E0
G1 F2400 E-8
;LAYER_COUNT:26
;LAYER:0
M107
M204 S5000
M205 X30 Y30
G0 F3600 X70.891 Y124.331 Z0.2
M204 S500
M205 X20 Y20
;TYPE:SKIRT
G1 F2400 E0
G1 F1800 X71.508 Y124.011 E0.02427
G1 X72.158 Y123.764 E0.04856
G1 X72.832 Y123.593 E0.07284
G1 X73.522 Y123.5 E0.09716
G1 X73.978 Y123.483 E0.11309
G1 X136.505 Y123.474 E2.29673
G1 X141.907 Y123.321 E2.48546
G1 X148.383 Y122.74 E2.71253
G1 X148.924 Y122.716 E2.73144
G1 X218.919 Y122.716 E5.17589
G1 X219.613 Y122.756 E5.20017
G1 X220.298 Y122.875 E5.22445
G1 X220.965 Y123.073 E5.24875
G1 X221.605 Y123.345 E5.27303
G1 X222.209 Y123.689 E5.29731
G1 X222.77 Y124.1 E5.32159
G1 X223.28 Y124.573 E5.34588
G1 X223.733 Y125.101 E5.37018
G1 X224.121 Y125.678 E5.39446
G1 X224.441 Y126.295 E5.41874
G1 X224.688 Y126.945 E5.44302
G1 X224.859 Y127.619 E5.4673
G1 X224.952 Y128.308 E5.49158
G1 X224.969 Y128.766 E5.50759
G1 X224.969 Y228.747 E8.99924
G1 X224.929 Y229.441 E9.02352
G1 X224.81 Y230.126 E9.0478
G1 X224.612 Y230.793 E9.0721
G1 X224.34 Y231.433 E9.09638
G1 X223.996 Y232.037 E9.12066
G1 X223.585 Y232.598 E9.14494
G1 X223.112 Y233.108 E9.16924
G1 X222.584 Y233.561 E9.19353
G1 X222.007 Y233.949 E9.21781
G1 X221.39 Y234.269 E9.24209
G1 X220.74 Y234.516 E9.26637
G1 X220.066 Y234.687 E9.29066
G1 X219.377 Y234.78 E9.31494
G1 X218.92 Y234.797 E9.33091
G1 X156.392 Y234.806 E11.51458
G1 X150.989 Y234.959 E11.70335
G1 X144.498 Y235.541 E11.93094
G1 X143.957 Y235.565 E11.94985
G1 X73.977 Y235.559 E14.39378
G1 X73.283 Y235.519 E14.41805
G1 X72.598 Y235.4 E14.44233
G1 X71.931 Y235.202 E14.46663
G1 X71.291 Y234.93 E14.49092
G1 X70.687 Y234.586 E14.51519
G1 X70.126 Y234.175 E14.53948
G1 X69.616 Y233.702 E14.56377
G1 X69.164 Y233.174 E14.58804
G1 X68.775 Y232.597 E14.61235
G1 X68.455 Y231.979 E14.63665
G1 X68.208 Y231.329 E14.66093
G1 X68.038 Y230.655 E14.68521
G1 X67.945 Y229.966 E14.70949
G1 X67.928 Y229.509 E14.72546
G1 X67.929 Y129.533 E18.21694
G1 X67.969 Y128.839 E18.24121
G1 X68.088 Y128.154 E18.26549
G1 X68.286 Y127.487 E18.28979
G1 X68.558 Y126.847 E18.31408
G1 X68.902 Y126.243 E18.33835
G1 X69.313 Y125.682 E18.36264
G1 X69.786 Y125.172 E18.38693
G1 X70.314 Y124.719 E18.41123
G1 X70.891 Y124.331 E18.43551
M204 S5000
M205 X30 Y30
G0 F3600 X71.291 Y124.586
M204 S500
M205 X20 Y20
G1 F1800 X71.898 Y124.302 E18.45891
G1 X72.535 Y124.091 E18.48235
G1 X73.193 Y123.958 E18.50579
G1 X73.978 Y123.903 E18.53328
G1 X136.517 Y123.894 E20.71733
G1 X141.94 Y123.741 E20.9068
G1 X148.421 Y123.159 E21.13404
G1 X148.924 Y123.136 E21.15163
G1 X218.919 Y123.136 E23.59607
G1 X219.589 Y123.176 E23.61951
G1 X220.249 Y123.295 E23.64294
G1 X220.89 Y123.492 E23.66635
G1 X221.503 Y123.764 E23.68978
G1 X222.08 Y124.107 E23.71322
G1 X222.612 Y124.516 E23.73665
G1 X223.091 Y124.985 E23.76006
G1 X223.511 Y125.508 E23.78349
G1 X223.866 Y126.078 E23.80694
G1 X224.15 Y126.685 E23.83034
G1 X224.361 Y127.322 E23.85378
G1 X224.494 Y127.98 E23.87722
G1 X224.549 Y128.766 E23.90474
G1 X224.549 Y228.747 E27.39639
G1 X224.509 Y229.417 E27.41983
G1 X224.39 Y230.077 E27.44325
G1 X224.193 Y230.718 E27.46667
G1 X223.921 Y231.331 E27.49009
G1 X223.578 Y231.908 E27.51353
G1 X223.169 Y232.44 E27.53697
G1 X222.7 Y232.919 E27.56038
G1 X222.177 Y233.339 E27.58381
G1 X221.607 Y233.694 E27.60726
G1 X221 Y233.978 E27.63066
G1 X220.363 Y234.189 E27.6541
G1 X219.705 Y234.322 E27.67754
G1 X218.92 Y234.377 E27.70502
G1 X156.38 Y234.386 E29.88912
G1 X150.956 Y234.539 E30.07861
G1 X144.461 Y235.122 E30.30635
G1 X143.958 Y235.145 E30.32394
G1 X73.978 Y235.139 E32.76786
G1 X73.308 Y235.099 E32.7913
G1 X72.648 Y234.98 E32.81472
G1 X72.007 Y234.783 E32.83814
G1 X71.393 Y234.511 E32.86159
G1 X70.817 Y234.168 E32.885
G1 X70.285 Y233.759 E32.90844
G1 X69.806 Y233.289 E32.93187
G1 X69.386 Y232.766 E32.9553
G1 X69.031 Y232.197 E32.97872
G1 X68.746 Y231.589 E33.00217
G1 X68.536 Y230.952 E33.02559
G1 X68.403 Y230.295 E33.049
G1 X68.348 Y229.509 E33.07652
G1 X68.349 Y129.533 E36.568
G1 X68.389 Y128.863 E36.59144
G1 X68.508 Y128.203 E36.61486
G1 X68.705 Y127.562 E36.63828
G1 X68.977 Y126.949 E36.6617
G1 X69.32 Y126.372 E36.68514
G1 X69.729 Y125.84 E36.70858
G1 X70.198 Y125.361 E36.73199
G1 X70.721 Y124.941 E36.75541
G1 X71.291 Y124.586 E36.77886
M204 S5000
M205 X30 Y30
G0 F3600 X71.127 Y125.173
M204 S500
M205 X20 Y20
G1 F1800 X71.688 Y124.854 E36.8014
G1 X72.284 Y124.607 E36.82393
G1 X72.906 Y124.435 E36.84647
G1 X73.544 Y124.341 E36.86899
G1 X73.978 Y124.323 E36.88416
G1 X136.529 Y124.314 E39.06864
G1 X141.956 Y124.16 E39.25824
G1 X148.458 Y123.577 E39.48622
G1 X148.924 Y123.556 E39.50251
G1 X218.919 Y123.556 E41.94696
G1 X219.563 Y123.596 E41.96949
G1 X220.197 Y123.715 E41.99202
G1 X220.812 Y123.912 E42.01457
G1 X221.397 Y124.183 E42.03709
G1 X221.945 Y124.525 E42.05965
G1 X222.446 Y124.931 E42.08217
G1 X222.893 Y125.397 E42.10472
G1 X223.279 Y125.914 E42.12725
G1 X223.598 Y126.475 E42.14979
G1 X223.845 Y127.071 E42.17232
G1 X224.017 Y127.693 E42.19486
G1 X224.111 Y128.331 E42.21738
G1 X224.129 Y128.766 E42.23258
G1 X224.129 Y228.747 E45.72424
G1 X224.089 Y229.391 E45.74677
G1 X223.97 Y230.025 E45.7693
G1 X223.773 Y230.64 E45.79185
G1 X223.502 Y231.225 E45.81437
G1 X223.16 Y231.773 E45.83692
G1 X222.754 Y232.274 E45.85945
G1 X222.288 Y232.721 E45.882
G1 X221.771 Y233.107 E45.90453
G1 X221.21 Y233.426 E45.92707
G1 X220.614 Y233.673 E45.9496
G1 X219.992 Y233.845 E45.97213
G1 X219.354 Y233.939 E45.99466
G1 X218.92 Y233.957 E46.00983
G1 X156.368 Y233.966 E48.19434
G1 X150.939 Y234.12 E48.38401
G1 X144.423 Y234.704 E48.61248
G1 X143.958 Y234.725 E48.62874
G1 X73.978 Y234.719 E51.07266
G1 X73.334 Y234.679 E51.09519
G1 X72.699 Y234.56 E51.11776
G1 X72.085 Y234.363 E51.14028
G1 X71.499 Y234.092 E51.16282
G1 X70.952 Y233.75 E51.18535
G1 X70.451 Y233.343 E51.2079
G1 X70.004 Y232.878 E51.23042
G1 X69.618 Y232.361 E51.25295
G1 X69.299 Y231.8 E51.27549
G1 X69.051 Y231.204 E51.29804
G1 X68.88 Y230.582 E51.32056
G1 X68.786 Y229.943 E51.34312
G1 X68.768 Y229.509 E51.35829
G1 X68.769 Y129.533 E54.84977
G1 X68.809 Y128.889 E54.8723
G1 X68.928 Y128.255 E54.89483
G1 X69.125 Y127.64 E54.91738
G1 X69.396 Y127.055 E54.9399
G1 X69.738 Y126.507 E54.96245
G1 X70.144 Y126.006 E54.98498
G1 X70.61 Y125.559 E55.00753
G1 X71.127 Y125.173 E55.03006
M204 S5000
M205 X30 Y30
G1 F2400 E47.03006
G0 F3600 X74.613 Y128.859
G0 X74.613 Y130.168
G0 X77.301 Y131.229
G0 X77.359 Y131.309
M204 S500
M205 X20 Y20
;TYPE:WALL-INNER
G1 F2400 E55.03006
G1 F1800 X76.754 Y131.915 E55.05996
G1 X76.365 Y132.677 E55.08984
G1 X76.231 Y133.524 E55.11979
G1 X76.365 Y134.371 E55.14974
G1 X76.754 Y135.133 E55.17962
G1 X77.359 Y135.739 E55.20952
G1 X78.123 Y136.127 E55.23945
G1 X78.969 Y136.262 E55.26936
G1 X79.816 Y136.127 E55.29932
G1 X80.578 Y135.739 E55.32918
G1 X81.184 Y135.133 E55.35911
G1 X81.572 Y134.371 E55.38897
G1 X81.707 Y133.524 E55.41893
G1 X81.572 Y132.677 E55.44888
G1 X81.184 Y131.915 E55.47874
G1 X80.578 Y131.309 E55.50867
G1 X79.816 Y130.921 E55.53853
G1 X78.969 Y130.786 E55.56849
G1 X78.123 Y130.921 E55.59841
G1 X77.359 Y131.309 E55.62833
M204 S5000
M205 X30 Y30
G0 F3600 X77.301 Y131.229
G0 X78.111 Y130.883
G0 X78.969 Y130.746
G0 X79.828 Y130.883
G0 X80.265 Y131.105
G0 X88.769 Y136.324
G0 X88.839 Y136.394
M204 S500
M205 X20 Y20
G1 F1800 X88.839 Y175.154 E56.98195
G1 X129.099 Y175.154 E58.38796
G1 X129.099 Y136.394 E59.74158
G1 X88.839 Y136.394 E61.14758
M204 S5000
M205 X30 Y30
G0 F3600 X88.769 Y136.324
G0 X77.301 Y177.229
G0 X77.359 Y177.309
M204 S500
M205 X20 Y20
G1 F1800 X76.754 Y177.915 E61.17749
G1 X76.365 Y178.677 E61.20737
G1 X76.231 Y179.524 E61.23732
G1 X76.365 Y180.371 E61.26726
G1 X76.754 Y181.133 E61.29714
G1 X77.359 Y181.739 E61.32705
G1 X78.123 Y182.127 E61.35697
G1 X78.969 Y182.262 E61.38689
G1 X79.816 Y182.127 E61.41684
G1 X80.578 Y181.739 E61.44671
G1 X81.184 Y181.133 E61.47664
G1 X81.572 Y180.371 E61.5065
G1 X81.707 Y179.524 E61.53645
G1 X81.572 Y178.677 E61.5664
G1 X81.184 Y177.915 E61.59627
G1 X80.578 Y177.309 E61.6262
G1 X79.816 Y176.921 E61.65606
G1 X78.969 Y176.786 E61.68601
G1 X78.123 Y176.921 E61.71593
G1 X77.359 Y177.309 E61.74586
M204 S5000
M205 X30 Y30
G0 F3600 X77.301 Y177.229
G0 X76.722 Y177.892
G0 X76.327 Y178.665
G0 X76.191 Y179.524
G0 X76.327 Y180.383
G0 X92.876 Y220.692
G0 X93.413 Y221.744
G0 X94.249 Y222.58
G0 X95.195 Y223.062
G0 X96.469 Y223.362
G0 X96.469 Y223.262
M204 S500
M205 X20 Y20
G1 F1800 X97.625 Y223.078 E61.78674
G1 X98.666 Y222.548 E61.82753
G1 X99.493 Y221.721 E61.86838
G1 X100.023 Y220.68 E61.90917
G1 X100.207 Y219.524 E61.95005
G1 X100.023 Y218.368 E61.99093
G1 X99.493 Y217.327 E62.03173
G1 X98.666 Y216.5 E62.07257
G1 X97.625 Y215.97 E62.11337
G1 X96.469 Y215.786 E62.15425
G1 X95.313 Y215.97 E62.19512
G1 X94.272 Y216.5 E62.23592
G1 X93.445 Y217.327 E62.27676
G1 X92.914 Y218.368 E62.31758
G1 X92.731 Y219.524 E62.35845
G1 X92.914 Y220.68 E62.39932
G1 X93.445 Y221.721 E62.44014
G1 X94.272 Y222.548 E62.48098
G1 X95.313 Y223.078 E62.52178
G1 X96.469 Y223.262 E62.56265
M204 S5000
M205 X30 Y30
G0 F3600 X96.469 Y223.362
G0 X121.469 Y223.362
G0 X121.469 Y223.262
M204 S500
M205 X20 Y20
G1 F1800 X122.625 Y223.078 E62.60353
G1 X123.666 Y222.548 E62.64433
G1 X124.493 Y221.721 E62.68517
G1 X125.023 Y220.68 E62.72597
G1 X125.207 Y219.524 E62.76685
G1 X125.023 Y218.368 E62.80773
G1 X124.493 Y217.327 E62.84852
G1 X123.666 Y216.5 E62.88937
G1 X122.625 Y215.97 E62.93016
G1 X121.469 Y215.786 E62.97104
G1 X120.313 Y215.97 E63.01192
G1 X119.272 Y216.5 E63.05272
G1 X118.445 Y217.327 E63.09356
G1 X117.914 Y218.368 E63.13437
G1 X117.731 Y219.524 E63.17525
G1 X117.914 Y220.68 E63.21612
G1 X118.445 Y221.721 E63.25693
G1 X119.272 Y222.548 E63.29778
G1 X120.313 Y223.078 E63.33857
G1 X121.469 Y223.262 E63.37945
M204 S5000
M205 X30 Y30
G0 F3600 X121.469 Y223.362
G0 X143.269 Y228.824
G0 X143.339 Y228.894
M204 S500
M205 X20 Y20
G1 F1800 X74.599 Y228.894 E65.78007
G1 X74.599 Y130.154 E69.22838
G1 X143.339 Y130.154 E71.629
G1 X143.339 Y228.894 E75.07731
M204 S5000
M205 X30 Y30
G0 F3600 X143.269 Y228.824
G0 X136.191 Y179.524
G0 X136.327 Y178.665
G0 X136.646 Y178.04
G0 X137.301 Y177.229
G0 X137.359 Y177.309
M204 S500
M205 X20 Y20
G1 F1800 X136.754 Y177.915 E75.10721
G1 X136.365 Y178.677 E75.13709
G1 X136.231 Y179.524 E75.16704
G1 X136.365 Y180.371 E75.19699
G1 X136.754 Y181.133 E75.22687
G1 X137.359 Y181.739 E75.25677
G1 X138.123 Y182.127 E75.2867
G1 X138.969 Y182.262 E75.31661
G1 X139.816 Y182.127 E75.34657
G1 X140.578 Y181.739 E75.37643
G1 X141.184 Y181.133 E75.40636
G1 X141.572 Y180.371 E75.43622
G1 X141.707 Y179.524 E75.46618
G1 X141.572 Y178.677 E75.49613
G1 X141.184 Y177.915 E75.52599
G1 X140.578 Y177.309 E75.55592
G1 X139.816 Y176.921 E75.58578
G1 X138.969 Y176.786 E75.61574
G1 X138.123 Y176.921 E75.64566
G1 X137.359 Y177.309 E75.67558
M204 S5000
M205 X30 Y30
G0 F3600 X137.301 Y177.229
G0 X136.191 Y133.524
G0 X136.327 Y132.665
G0 X136.646 Y132.04
G0 X137.301 Y131.229
G0 X137.359 Y131.309
M204 S500
M205 X20 Y20
G1 F1800 X136.754 Y131.915 E75.70549
G1 X136.365 Y132.677 E75.73536
G1 X136.231 Y133.524 E75.76531
G1 X136.365 Y134.371 E75.79526
G1 X136.754 Y135.133 E75.82514
G1 X137.359 Y135.739 E75.85504
G1 X138.123 Y136.127 E75.88497
G1 X138.969 Y136.262 E75.91489
G1 X139.816 Y136.127 E75.94484
G1 X140.578 Y135.739 E75.9747
G1 X141.184 Y135.133 E76.00463
G1 X141.572 Y134.371 E76.0345
G1 X141.707 Y133.524 E76.06445
G1 X141.572 Y132.677 E76.0944
G1 X141.184 Y131.915 E76.12426
G1 X140.578 Y131.309 E76.15419
G1 X139.816 Y130.921 E76.18406
G1 X138.969 Y130.786 E76.21401
G1 X138.123 Y130.921 E76.24393
G1 X137.359 Y131.309 E76.27385
M204 S5000
M205 X30 Y30
G1 F2400 E68.27385
G0 F3600 X137.301 Y131.229
G0 X136.722 Y131.892
G0 X136.327 Y132.665
G0 X136.191 Y133.524
G0 X136.327 Y134.383
G0 X136.722 Y135.156
G0 X137.336 Y135.771
G0 X137.963 Y136.089
G0 X138.888 Y136.349
G0 X138.969 Y135.837
M204 S500
M205 X20 Y20
;TYPE:WALL-OUTER
G1 F2400 E76.27385
G1 F1800 X139.684 Y135.723 E76.29914
G1 X140.328 Y135.395 E76.32438
G1 X140.84 Y134.883 E76.34967
G1 X141.168 Y134.239 E76.3749
G1 X141.282 Y133.524 E76.40019
G1 X141.168 Y132.809 E76.42548
G1 X140.84 Y132.165 E76.45072
G1 X140.328 Y131.653 E76.476
G1 X139.684 Y131.325 E76.50124
G1 X138.969 Y131.211 E76.52653
G1 X138.254 Y131.325 E76.55181
G1 X137.609 Y131.653 E76.57708
G1 X137.098 Y132.165 E76.60235
G1 X136.769 Y132.809 E76.6276
G1 X136.656 Y133.524 E76.65288
G1 X136.769 Y134.239 E76.67816
G1 X137.098 Y134.883 E76.70342
G1 X137.609 Y135.395 E76.72868
G1 X138.254 Y135.723 E76.75395
G1 X138.969 Y135.837 E76.77924
M204 S5000
M205 X30 Y30
G0 F3600 X139.166 Y135.806
G1 F2400 E68.77924
G0 F3600 X139.246 Y136.319
G0 X136.191 Y179.524
G0 X136.327 Y180.383
G0 X136.722 Y181.156
G0 X137.336 Y181.771
G0 X137.963 Y182.089
G0 X138.888 Y182.349
G0 X138.969 Y181.837
M204 S500
M205 X20 Y20
G1 F2400 E76.77924
G1 F1800 X139.684 Y181.723 E76.80452
G1 X140.328 Y181.395 E76.82976
G1 X140.84 Y180.883 E76.85505
G1 X141.168 Y180.239 E76.88029
G1 X141.282 Y179.524 E76.90557
G1 X141.168 Y178.809 E76.93086
G1 X140.84 Y178.165 E76.9561
G1 X140.328 Y177.653 E76.98138
G1 X139.684 Y177.325 E77.00662
G1 X138.969 Y177.211 E77.03191
G1 X138.254 Y177.325 E77.05719
G1 X137.609 Y177.653 E77.08247
G1 X137.098 Y178.165 E77.10773
G1 X136.769 Y178.809 E77.13298
G1 X136.656 Y179.524 E77.15826
G1 X136.769 Y180.239 E77.18354
G1 X137.098 Y180.883 E77.2088
G1 X137.609 Y181.395 E77.23406
G1 X138.254 Y181.723 E77.25933
G1 X138.969 Y181.837 E77.28462
M204 S5000
M205 X30 Y30
G0 F3600 X139.166 Y181.806
G1 F2400 E69.28462
G0 F3600 X139.246 Y182.319
G0 X125.061 Y220.692
G0 X124.525 Y221.744
G0 X123.689 Y222.58
G0 X122.743 Y223.062
G0 X121.388 Y223.349
G0 X121.469 Y222.837
M204 S500
M205 X20 Y20
G1 F2400 E77.28462
G1 F1800 X122.493 Y222.674 E77.32083
G1 X123.416 Y222.204 E77.357
G1 X124.149 Y221.471 E77.3932
G1 X124.619 Y220.548 E77.42938
G1 X124.782 Y219.524 E77.46559
G1 X124.619 Y218.5 E77.5018
G1 X124.149 Y217.577 E77.53797
G1 X123.416 Y216.844 E77.57417
G1 X122.493 Y216.374 E77.61035
G1 X121.469 Y216.211 E77.64656
G1 X120.445 Y216.374 E77.68277
G1 X119.522 Y216.844 E77.71894
G1 X118.789 Y217.577 E77.75514
G1 X118.318 Y218.5 E77.79133
G1 X118.156 Y219.524 E77.82754
G1 X118.318 Y220.548 E77.86374
G1 X118.789 Y221.471 E77.89993
G1 X119.522 Y222.204 E77.93613
G1 X120.445 Y222.674 E77.97231
G1 X121.469 Y222.837 E78.00852
M204 S5000
M205 X30 Y30
G0 F3600 X121.666 Y222.806
G1 F2400 E70.00852
G0 F3600 X121.746 Y223.319
G0 X143.269 Y228.824
G0 X143.759 Y229.314
M204 S500
M205 X20 Y20
G1 F2400 E78.00852
G1 F1800 X74.179 Y229.314 E80.43847
G1 X74.179 Y129.734 E83.91612
G1 X143.759 Y129.734 E86.34607
G1 X143.759 Y229.314 E89.82372
M204 S5000
M205 X30 Y30
G0 F3600 X143.559 Y229.314
G1 F2400 E81.82372
G0 F3600 X143.269 Y228.824
G0 X96.388 Y223.349
G0 X96.469 Y222.837
M204 S500
M205 X20 Y20
G1 F2400 E89.82372
G1 F1800 X97.493 Y222.674 E89.85993
G1 X98.416 Y222.204 E89.8961
G1 X99.149 Y221.471 E89.9323
G1 X99.619 Y220.548 E89.96847
G1 X99.782 Y219.524 E90.00469
G1 X99.619 Y218.5 E90.0409
G1 X99.149 Y217.577 E90.07707
G1 X98.416 Y216.844 E90.11327
G1 X97.493 Y216.374 E90.14944
G1 X96.469 Y216.211 E90.18566
G1 X95.445 Y216.374 E90.22187
G1 X94.522 Y216.844 E90.25804
G1 X93.789 Y217.577 E90.29424
G1 X93.318 Y218.5 E90.33043
G1 X93.156 Y219.524 E90.36664
G1 X93.318 Y220.548 E90.40284
G1 X93.789 Y221.471 E90.43903
G1 X94.522 Y222.204 E90.47523
G1 X95.445 Y222.674 E90.5114
G1 X96.469 Y222.837 E90.54762
M204 S5000
M205 X30 Y30
G0 F3600 X96.666 Y222.806
G1 F2400 E82.54762
G0 F3600 X96.746 Y223.319
G0 X95.301 Y223.116
G0 X94.249 Y222.58
G0 X93.413 Y221.744
G0 X92.979 Y220.893
G0 X78.888 Y182.349
G0 X78.969 Y181.837
M204 S500
M205 X20 Y20
G1 F2400 E90.54762
G1 F1800 X79.684 Y181.723 E90.5729
G1 X80.328 Y181.395 E90.59814
