;FLAVOR:Marlin
;TIME:6261
;Filament used: 6.50144m
;Layer height: 0.2
;Generated with Cura_SteamEngine 3.5.1
M82 ;absolute extrusion mode
;Start heating
M140 S50.0
G28 ;Home
G29 ;Bedlevel
G1 X0 Y0 Z20 F5000
G92 E0; Reset Extruder
M190 S50.0
M109 S190.0
M104 S200.0
;Wipe nozzle
M106 S255
G1 Y-0.4 Z0.4
G1 F500 Y40 E15 ;Make wipe line
G0 Y100 Z5
G1 Z0.2 F500
G0 Z5
M106 S0
M82
G90
G92 E0
G1 F2400 E-8
;LAYER_COUNT:25
;LAYER:0
M107
M204 S5000
M205 X30 Y30
G0 F2400 X85.868 Y135.243 Z0.2
M204 S500
M205 X20 Y20
;TYPE:SKIRT
G1 F2400 E0
G1 F1200 X86.485 Y134.923 E0.02427
G1 X87.135 Y134.676 E0.04856
G1 X87.809 Y134.505 E0.07284
G1 X88.498 Y134.412 E0.09712
G1 X88.956 Y134.395 E0.11313
G1 X208.938 Y134.396 E4.30328
G1 X209.632 Y134.436 E4.32755
G1 X210.317 Y134.555 E4.35183
G1 X210.984 Y134.753 E4.37613
G1 X211.624 Y135.025 E4.40042
G1 X212.228 Y135.369 E4.42469
G1 X212.789 Y135.78 E4.44898
G1 X213.299 Y136.253 E4.47327
G1 X213.752 Y136.781 E4.49757
G1 X214.14 Y137.358 E4.52185
G1 X214.46 Y137.975 E4.54612
G1 X214.707 Y138.625 E4.57041
G1 X214.878 Y139.299 E4.59469
G1 X214.971 Y139.989 E4.619
G1 X214.988 Y140.446 E4.63498
G1 X214.988 Y240.427 E8.12663
G1 X214.948 Y241.121 E8.1509
G1 X214.829 Y241.806 E8.17518
G1 X214.631 Y242.473 E8.19948
G1 X214.359 Y243.113 E8.22377
G1 X214.015 Y243.717 E8.24804
G1 X213.604 Y244.278 E8.27233
G1 X213.131 Y244.788 E8.29662
G1 X212.603 Y245.241 E8.32092
G1 X212.026 Y245.629 E8.3452
G1 X211.409 Y245.949 E8.36947
G1 X210.759 Y246.196 E8.39376
G1 X210.085 Y246.367 E8.41804
G1 X209.396 Y246.46 E8.44232
G1 X208.938 Y246.477 E8.45833
G1 X88.956 Y246.477 E12.64848
G1 X88.262 Y246.437 E12.67275
G1 X87.577 Y246.318 E12.69703
G1 X86.91 Y246.12 E12.72133
G1 X86.27 Y245.848 E12.74562
G1 X85.666 Y245.504 E12.76989
G1 X85.105 Y245.093 E12.79418
G1 X84.595 Y244.62 E12.81847
G1 X84.142 Y244.092 E12.84277
G1 X83.754 Y243.515 E12.86705
G1 X83.434 Y242.898 E12.89132
G1 X83.187 Y242.248 E12.91561
G1 X83.016 Y241.574 E12.93989
G1 X82.923 Y240.885 E12.96417
G1 X82.906 Y240.427 E12.98018
G1 X82.906 Y140.445 E16.47186
G1 X82.946 Y139.751 E16.49614
G1 X83.065 Y139.066 E16.52042
G1 X83.263 Y138.399 E16.54472
G1 X83.535 Y137.759 E16.569
G1 X83.879 Y137.155 E16.59328
G1 X84.29 Y136.594 E16.61757
G1 X84.763 Y136.084 E16.64186
G1 X85.291 Y135.631 E16.66615
G1 X85.868 Y135.243 E16.69044
M204 S5000
M205 X30 Y30
G0 F2400 X86.268 Y135.498
M204 S500
M205 X20 Y20
G1 F1200 X86.875 Y135.214 E16.71384
G1 X87.512 Y135.003 E16.73727
G1 X88.17 Y134.87 E16.76072
G1 X88.956 Y134.815 E16.78824
G1 X208.938 Y134.816 E20.97838
G1 X209.608 Y134.856 E21.00182
G1 X210.268 Y134.975 E21.02525
G1 X210.909 Y135.172 E21.04866
G1 X211.522 Y135.444 E21.07208
G1 X212.099 Y135.787 E21.09553
G1 X212.631 Y136.196 E21.11896
G1 X213.11 Y136.665 E21.14237
G1 X213.53 Y137.188 E21.1658
G1 X213.885 Y137.758 E21.18925
G1 X214.169 Y138.365 E21.21265
G1 X214.38 Y139.002 E21.23609
G1 X214.513 Y139.66 E21.25953
G1 X214.568 Y140.446 E21.28705
G1 X214.568 Y240.427 E24.7787
G1 X214.528 Y241.097 E24.80214
G1 X214.409 Y241.757 E24.82556
G1 X214.212 Y242.398 E24.84898
G1 X213.94 Y243.011 E24.8724
G1 X213.597 Y243.588 E24.89584
G1 X213.188 Y244.12 E24.91928
G1 X212.719 Y244.599 E24.94269
G1 X212.196 Y245.019 E24.96612
G1 X211.626 Y245.374 E24.98957
G1 X211.019 Y245.658 E25.01297
G1 X210.382 Y245.869 E25.03641
G1 X209.724 Y246.002 E25.05985
G1 X208.938 Y246.057 E25.08737
G1 X88.956 Y246.057 E29.27751
G1 X88.286 Y246.017 E29.30095
G1 X87.626 Y245.898 E29.32438
G1 X86.985 Y245.701 E29.34779
G1 X86.372 Y245.429 E29.37122
G1 X85.795 Y245.086 E29.39466
G1 X85.263 Y244.677 E29.41809
G1 X84.784 Y244.208 E29.4415
G1 X84.364 Y243.685 E29.46493
G1 X84.009 Y243.115 E29.48838
G1 X83.725 Y242.508 E29.51178
G1 X83.514 Y241.871 E29.53522
G1 X83.381 Y241.213 E29.55866
G1 X83.326 Y240.427 E29.58618
G1 X83.326 Y140.445 E33.07787
G1 X83.366 Y139.775 E33.10131
G1 X83.485 Y139.115 E33.12473
G1 X83.682 Y138.474 E33.14815
G1 X83.954 Y137.861 E33.17157
G1 X84.297 Y137.284 E33.19501
G1 X84.706 Y136.752 E33.21844
G1 X85.175 Y136.273 E33.24186
G1 X85.698 Y135.853 E33.26528
G1 X86.268 Y135.498 E33.28873
M204 S5000
M205 X30 Y30
G0 F2400 X86.104 Y136.085
M204 S500
M205 X20 Y20
G1 F1200 X86.665 Y135.766 E33.31127
G1 X87.261 Y135.519 E33.3338
G1 X87.883 Y135.347 E33.35634
G1 X88.521 Y135.253 E33.37886
G1 X88.956 Y135.235 E33.39406
G1 X208.938 Y135.236 E37.58421
G1 X209.582 Y135.276 E37.60675
G1 X210.216 Y135.395 E37.62927
G1 X210.831 Y135.592 E37.65183
G1 X211.416 Y135.863 E37.67434
G1 X211.964 Y136.205 E37.6969
G1 X212.465 Y136.611 E37.71942
G1 X212.912 Y137.077 E37.74197
G1 X213.298 Y137.594 E37.76451
G1 X213.617 Y138.155 E37.78704
G1 X213.864 Y138.751 E37.80957
G1 X214.036 Y139.373 E37.83211
G1 X214.13 Y140.011 E37.85463
G1 X214.148 Y140.446 E37.86984
G1 X214.148 Y240.427 E41.36149
G1 X214.108 Y241.071 E41.38402
G1 X213.989 Y241.705 E41.40655
G1 X213.792 Y242.32 E41.4291
G1 X213.521 Y242.905 E41.45162
G1 X213.179 Y243.453 E41.47418
G1 X212.773 Y243.954 E41.4967
G1 X212.307 Y244.401 E41.51925
G1 X211.79 Y244.787 E41.54178
G1 X211.229 Y245.106 E41.56432
G1 X210.633 Y245.353 E41.58685
G1 X210.011 Y245.525 E41.60939
G1 X209.373 Y245.619 E41.63191
G1 X208.938 Y245.637 E41.64711
G1 X88.956 Y245.637 E45.83726
G1 X88.312 Y245.597 E45.8598
G1 X87.678 Y245.478 E45.88232
G1 X87.063 Y245.281 E45.90488
G1 X86.478 Y245.01 E45.92739
G1 X85.93 Y244.668 E45.94995
G1 X85.429 Y244.262 E45.97247
G1 X84.982 Y243.796 E45.99502
G1 X84.596 Y243.279 E46.01755
G1 X84.277 Y242.718 E46.04009
G1 X84.03 Y242.122 E46.06262
G1 X83.858 Y241.5 E46.08516
G1 X83.764 Y240.862 E46.10768
G1 X83.746 Y240.427 E46.12289
G1 X83.746 Y140.445 E49.61457
G1 X83.786 Y139.801 E49.63711
G1 X83.905 Y139.167 E49.65963
G1 X84.102 Y138.552 E49.68219
G1 X84.373 Y137.967 E49.7047
G1 X84.715 Y137.419 E49.72726
G1 X85.121 Y136.918 E49.74978
G1 X85.587 Y136.471 E49.77233
G1 X86.104 Y136.085 E49.79487
M204 S5000
M205 X30 Y30
G1 F2400 E41.79487
G0 F2400 X89.591 Y139.771
G0 X89.591 Y141.08
G0 X114.779 Y149.731
G0 X114.837 Y149.651
M204 S500
M205 X20 Y20
;TYPE:WALL-INNER
G1 F2400 E49.79487
G1 F1200 X115.601 Y150.039 E49.82479
G1 X116.447 Y150.174 E49.85471
G1 X117.294 Y150.039 E49.88466
G1 X118.056 Y149.651 E49.91452
G1 X118.662 Y149.045 E49.94445
G1 X119.05 Y148.283 E49.97432
G1 X119.185 Y147.436 E50.00427
G1 X119.05 Y146.59 E50.03419
G1 X118.662 Y145.826 E50.06411
G1 X118.056 Y145.221 E50.09402
G1 X117.294 Y144.833 E50.12388
G1 X116.447 Y144.698 E50.15383
G1 X115.601 Y144.833 E50.18375
G1 X114.837 Y145.221 E50.21368
G1 X114.232 Y145.826 E50.24356
G1 X113.844 Y146.59 E50.27348
G1 X113.709 Y147.436 E50.3034
G1 X113.844 Y148.283 E50.33336
G1 X114.232 Y149.045 E50.36322
G1 X114.837 Y149.651 E50.39312
M204 S5000
M205 X30 Y30
G0 F2400 X114.779 Y149.731
G0 X128.747 Y158.736
G0 X128.817 Y158.806
M204 S500
M205 X20 Y20
G1 F1200 X128.817 Y222.066 E52.60236
G1 X190.577 Y222.066 E54.75921
G1 X190.577 Y158.806 E56.96845
G1 X128.817 Y158.806 E59.12531
M204 S5000
M205 X30 Y30
G0 F2400 X128.747 Y158.736
G0 X96.727 Y174.88
G0 X95.891 Y175.716
G0 X95.409 Y176.662
G0 X95.109 Y177.936
G0 X95.209 Y177.936
M204 S500
M205 X20 Y20
G1 F1200 X95.393 Y179.092 E59.16618
G1 X95.923 Y180.133 E59.20698
G1 X96.75 Y180.96 E59.24782
G1 X97.791 Y181.49 E59.28862
G1 X98.947 Y181.674 E59.3295
G1 X100.103 Y181.49 E59.37038
G1 X101.144 Y180.96 E59.41117
G1 X101.971 Y180.133 E59.45202
G1 X102.501 Y179.092 E59.49281
G1 X102.685 Y177.936 E59.53369
G1 X102.501 Y176.78 E59.57457
G1 X101.971 Y175.739 E59.61537
G1 X101.144 Y174.912 E59.65621
G1 X100.103 Y174.381 E59.69702
G1 X98.947 Y174.198 E59.7379
G1 X97.791 Y174.381 E59.77877
G1 X96.75 Y174.912 E59.81958
G1 X95.923 Y175.739 E59.86043
G1 X95.393 Y176.78 E59.90122
G1 X95.209 Y177.936 E59.9421
M204 S5000
M205 X30 Y30
G0 F2400 X95.109 Y177.936
G0 X95.109 Y202.936
G0 X95.209 Y202.936
M204 S500
M205 X20 Y20
G1 F1200 X95.393 Y204.092 E59.98298
G1 X95.923 Y205.133 E60.02378
G1 X96.75 Y205.96 E60.06462
G1 X97.791 Y206.49 E60.10542
G1 X98.947 Y206.674 E60.1463
G1 X100.103 Y206.49 E60.18718
G1 X101.144 Y205.96 E60.22797
G1 X101.971 Y205.133 E60.26882
G1 X102.501 Y204.092 E60.30961
G1 X102.685 Y202.936 E60.35049
G1 X102.501 Y201.78 E60.39137
G1 X101.971 Y200.739 E60.43217
G1 X101.144 Y199.912 E60.47301
G1 X100.103 Y199.381 E60.51382
G1 X98.947 Y199.198 E60.5547
G1 X97.791 Y199.381 E60.59557
G1 X96.75 Y199.912 E60.63638
G1 X95.923 Y200.739 E60.67723
G1 X95.393 Y201.78 E60.71802
G1 X95.209 Y202.936 E60.7589
M204 S5000
M205 X30 Y30
G0 F2400 X95.109 Y202.936
G0 X95.355 Y204.104
G0 X95.891 Y205.156
G0 X114.2 Y235.068
G0 X114.779 Y235.731
G0 X114.837 Y235.651
M204 S500
M205 X20 Y20
G1 F1200 X115.601 Y236.039 E60.78883
G1 X116.447 Y236.174 E60.81875
G1 X117.294 Y236.039 E60.8487
G1 X118.056 Y235.651 E60.87856
G1 X118.662 Y235.045 E60.90849
G1 X119.05 Y234.283 E60.93835
G1 X119.185 Y233.436 E60.96831
G1 X119.05 Y232.59 E60.99823
G1 X118.662 Y231.826 E61.02815
G1 X118.056 Y231.221 E61.05806
G1 X117.294 Y230.833 E61.08792
G1 X116.447 Y230.698 E61.11787
G1 X115.601 Y230.833 E61.14779
G1 X114.837 Y231.221 E61.17771
G1 X114.232 Y231.826 E61.2076
G1 X113.844 Y232.59 E61.23752
G1 X113.709 Y233.436 E61.26744
G1 X113.844 Y234.283 E61.29739
G1 X114.232 Y235.045 E61.32725
G1 X114.837 Y235.651 E61.35716
M204 S5000
M205 X30 Y30
G0 F2400 X114.779 Y235.731
G0 X115.589 Y236.077
G0 X116.283 Y236.187
G0 X199.652 Y231.768
G0 X199.732 Y231.826
M204 S500
M205 X20 Y20
G1 F1200 X199.344 Y232.59 E61.38708
G1 X199.209 Y233.436 E61.417
G1 X199.344 Y234.283 E61.44696
G1 X199.732 Y235.045 E61.47682
G1 X200.338 Y235.651 E61.50675
G1 X201.1 Y236.039 E61.53661
G1 X201.947 Y236.174 E61.56656
G1 X202.794 Y236.039 E61.59652
G1 X203.556 Y235.651 E61.62638
G1 X204.162 Y235.045 E61.65631
G1 X204.55 Y234.283 E61.68617
G1 X204.685 Y233.436 E61.71613
G1 X204.55 Y232.59 E61.74604
G1 X204.162 Y231.826 E61.77597
G1 X203.556 Y231.221 E61.80587
G1 X202.794 Y230.833 E61.83574
G1 X201.947 Y230.698 E61.86569
G1 X201.1 Y230.833 E61.89564
G1 X200.338 Y231.221 E61.92551
G1 X199.732 Y231.826 E61.95541
M204 S5000
M205 X30 Y30
G0 F2400 X199.652 Y231.768
G0 X199.306 Y232.578
G0 X199.169 Y233.436
G0 X199.306 Y234.295
G0 X199.7 Y235.068
G0 X200.253 Y235.621
G0 X208.247 Y239.736
G0 X208.317 Y239.806
M204 S500
M205 X20 Y20
G1 F1200 X89.577 Y239.806 E66.10219
G1 X89.577 Y141.066 E69.5505
G1 X208.317 Y141.066 E73.69727
G1 X208.317 Y239.806 E77.14558
M204 S5000
M205 X30 Y30
G0 F2400 X208.247 Y239.736
G0 X199.169 Y147.436
G0 X199.279 Y146.742
G0 X199.652 Y145.768
G0 X199.732 Y145.826
M204 S500
M205 X20 Y20
G1 F1200 X199.344 Y146.59 E77.17551
G1 X199.209 Y147.436 E77.20542
G1 X199.344 Y148.283 E77.23538
G1 X199.732 Y149.045 E77.26524
G1 X200.338 Y149.651 E77.29517
G1 X201.1 Y150.039 E77.32503
G1 X201.947 Y150.174 E77.35499
G1 X202.794 Y150.039 E77.38494
G1 X203.556 Y149.651 E77.4148
G1 X204.162 Y149.045 E77.44473
G1 X204.55 Y148.283 E77.47459
G1 X204.685 Y147.436 E77.50455
G1 X204.55 Y146.59 E77.53447
G1 X204.162 Y145.826 E77.56439
G1 X203.556 Y145.221 E77.5943
G1 X202.794 Y144.833 E77.62416
G1 X201.947 Y144.698 E77.65411
G1 X201.1 Y144.833 E77.68407
G1 X200.338 Y145.221 E77.71393
G1 X199.732 Y145.826 E77.74383
M204 S5000
M205 X30 Y30
G1 F2400 E69.74383
G0 F2400 X199.652 Y145.768
G0 X199.373 Y146.424
G0 X199.122 Y147.355
G0 X199.634 Y147.436
M204 S500
M205 X20 Y20
;TYPE:WALL-OUTER
G1 F2400 E77.74383
G1 F1200 X199.748 Y148.151 E77.76912
G1 X200.076 Y148.795 E77.79436
G1 X200.588 Y149.307 E77.81964
G1 X201.232 Y149.635 E77.84488
G1 X201.947 Y149.749 E77.87017
G1 X202.662 Y149.635 E77.89546
G1 X203.306 Y149.307 E77.92069
G1 X203.818 Y148.795 E77.94598
G1 X204.146 Y148.151 E77.97122
G1 X204.26 Y147.436 E77.99651
G1 X204.146 Y146.721 E78.02179
G1 X203.818 Y146.076 E78.04706
G1 X203.306 Y145.565 E78.07233
G1 X202.662 Y145.237 E78.09756
G1 X201.947 Y145.123 E78.12285
G1 X201.232 Y145.237 E78.14814
G1 X200.588 Y145.565 E78.17338
G1 X200.076 Y146.076 E78.19864
G1 X199.748 Y146.721 E78.22391
G1 X199.634 Y147.436 E78.24919
M204 S5000
M205 X30 Y30
G0 F2400 X199.665 Y147.633
G1 F2400 E70.24919
G0 F2400 X199.152 Y147.713
G0 X129.237 Y158.706
G0 X129.237 Y159.226
M204 S500
M205 X20 Y20
G1 F2400 E78.24919
G1 F1200 X129.237 Y221.646 E80.4291
G1 X190.157 Y221.646 E82.55661
G1 X190.157 Y159.226 E84.73652
G1 X129.237 Y159.226 E86.86403
M204 S5000
M205 X30 Y30
G0 F2400 X129.237 Y159.426
G1 F2400 E78.86403
G0 F2400 X128.717 Y159.426
G0 X114.814 Y149.683
G0 X114.2 Y149.068
G0 X113.846 Y148.373
G0 X113.622 Y147.355
G0 X114.134 Y147.436
M204 S500
M205 X20 Y20
G1 F2400 E86.86403
G1 F1200 X114.248 Y148.151 E86.88932
G1 X114.576 Y148.795 E86.91456
G1 X115.087 Y149.307 E86.93982
G1 X115.732 Y149.635 E86.96509
G1 X116.447 Y149.749 E86.99038
G1 X117.162 Y149.635 E87.01566
G1 X117.806 Y149.307 E87.0409
G1 X118.318 Y148.795 E87.06619
G1 X118.646 Y148.151 E87.09143
G1 X118.76 Y147.436 E87.11671
G1 X118.646 Y146.721 E87.142
G1 X118.318 Y146.076 E87.16727
G1 X117.806 Y145.565 E87.19253
G1 X117.162 Y145.237 E87.21777
G1 X116.447 Y145.123 E87.24306
G1 X115.732 Y145.237 E87.26834
G1 X115.087 Y145.565 E87.29361
G1 X114.576 Y146.076 E87.31885
G1 X114.248 Y146.721 E87.34412
G1 X114.134 Y147.436 E87.36941
M204 S5000
M205 X30 Y30
G0 F2400 X114.165 Y147.633
G1 F2400 E79.36941
G0 F2400 X113.652 Y147.713
G0 X95.891 Y175.716
G0 X95.409 Y176.662
G0 X95.122 Y177.855
G0 X95.634 Y177.936
M204 S500
M205 X20 Y20
G1 F2400 E87.36941
G1 F1200 X95.797 Y178.96 E87.40562
G1 X96.267 Y179.883 E87.44179
G1 X97 Y180.616 E87.47799
G1 X97.923 Y181.086 E87.51417
G1 X98.947 Y181.249 E87.55038
G1 X99.971 Y181.086 E87.58659
G1 X100.894 Y180.616 E87.62276
G1 X101.627 Y179.883 E87.65896
G1 X102.097 Y178.96 E87.69514
G1 X102.26 Y177.936 E87.73135
G1 X102.097 Y176.912 E87.76756
G1 X101.627 Y175.989 E87.80373
G1 X100.894 Y175.256 E87.83993
G1 X99.971 Y174.785 E87.87612
G1 X98.947 Y174.623 E87.91233
G1 X97.923 Y174.785 E87.94853
G1 X97 Y175.256 E87.98472
G1 X96.267 Y175.989 E88.02092
G1 X95.797 Y176.912 E88.0571
G1 X95.634 Y177.936 E88.09331
M204 S5000
M205 X30 Y30
G0 F2400 X95.665 Y178.133
G1 F2400 E80.09331
G0 F2400 X95.152 Y178.213
G0 X95.122 Y202.855
G0 X95.634 Y202.936
M204 S500
M205 X20 Y20
G1 F2400 E88.09331
G1 F1200 X95.797 Y203.96 E88.12952
G1 X96.267 Y204.883 E88.16569
G1 X97 Y205.616 E88.2019
G1 X97.923 Y206.086 E88.23807
G1 X98.947 Y206.249 E88.27428
G1 X99.971 Y206.086 E88.31049
G1 X100.894 Y205.616 E88.34666
G1 X101.627 Y204.883 E88.38287
G1 X102.097 Y203.96 E88.41904
G1 X102.26 Y202.936 E88.45525
G1 X102.097 Y201.912 E88.49146
G1 X101.627 Y200.989 E88.52763
G1 X100.894 Y200.256 E88.56384
G1 X99.971 Y199.785 E88.60002
G1 X98.947 Y199.623 E88.63623
G1 X97.923 Y199.785 E88.67244
G1 X97 Y200.256 E88.70862
G1 X96.267 Y200.989 E88.74483
G1 X95.797 Y201.912 E88.781
G1 X95.634 Y202.936 E88.81721
M204 S5000
M205 X30 Y30
G0 F2400 X95.665 Y203.133
G1 F2400 E80.81721
G0 F2400 X95.152 Y203.213
G0 X95.355 Y204.104
G0 X95.788 Y204.955
G0 X113.622 Y233.355
G0 X114.134 Y233.436
M204 S500
M205 X20 Y20
G1 F2400 E88.81721
G1 F1200 X114.248 Y234.151 E88.8425
G1 X114.576 Y234.795 E88.86773
G1 X115.087 Y235.307 E88.893
G1 X115.732 Y235.635 E88.91827
G1 X116.447 Y235.749 E88.94355
G1 X117.162 Y235.635 E88.96884
G1 X117.806 Y235.307 E88.99408
G1 X118.318 Y234.795 E89.01937
G1 X118.646 Y234.151 E89.04461
G1 X118.76 Y233.436 E89.06989
G1 X118.646 Y232.721 E89.09518
G1 X118.318 Y232.076 E89.12045
G1 X117.806 Y231.565 E89.14571
G1 X117.162 Y231.237 E89.17095
G1 X116.447 Y231.123 E89.19623
G1 X115.732 Y231.237 E89.22152
G1 X115.087 Y231.565 E89.24679
G1 X114.576 Y232.076 E89.27203
G1 X114.248 Y232.721 E89.2973
G1 X114.134 Y233.436 E89.32258
M204 S5000
M205 X30 Y30
G0 F2400 X114.165 Y233.633
G1 F2400 E81.32258
G0 F2400 X113.652 Y233.713
G0 X113.806 Y234.295
G0 X114.2 Y235.068
G0 X114.814 Y235.683
G0 X115.589 Y236.077
G0 X116.283 Y236.187
G0 X199.122 Y233.355
G0 X199.634 Y233.436
M204 S500
M205 X20 Y20
G1 F2400 E89.32258
G1 F1200 X199.748 Y234.151 E89.34787
G1 X200.076 Y234.795 E89.37311
G1 X200.588 Y235.307 E89.3984
G1 X201.232 Y235.635 E89.42364
G1 X201.947 Y235.749 E89.44892
