;FLAVOR:Marlin
;TIME:11708
;Filament used: 11.1781m
;Layer height: 0.2
;Generated with Cura_SteamEngine 3.5.1
M82 ;absolute extrusion mode
;Start heating
M140 S50.0
G28 ;Home
G29 ;Bedlevel
G1 X0 Y0 Z20 F5000
G92 E0; Reset Extruder
M190 S50.0
M109 S190.0
M104 S200.0
;Wipe nozzle
M106 S255
G1 Y-0.4 Z0.4
G1 F500 Y40 E15 ;Make wipe line
G0 Y100 Z5
G1 Z0.2 F500
G0 Z5
M106 S0
M82
G90
G92 E0
G1 F2400 E-8
;LAYER_COUNT:36
;LAYER:0
M107
M204 S5000
M205 X30 Y30
G0 F2400 X114.436 Y106.465 Z0.2
M204 S500
M205 X20 Y20
;TYPE:SKIRT
G1 F2400 E0
G1 F1200 X114.953 Y106 E0.02428
G1 X115.521 Y105.598 E0.04859
G1 X116.131 Y105.264 E0.07287
G1 X116.775 Y105.003 E0.09714
G1 X117.445 Y104.816 E0.12143
G1 X117.961 Y104.728 E0.13971
G1 X120.854 Y104.359 E0.24156
G1 X126.166 Y103.443 E0.42981
G1 X128.693 Y102.897 E0.5201
G1 X133.857 Y101.547 E0.70651
G1 X138.939 Y99.908 E0.89299
G1 X143.887 Y97.996 E1.07824
G1 X148.734 Y95.801 E1.26406
G1 X153.431 Y93.345 E1.44916
G1 X158.001 Y90.614 E1.63509
G1 X162.399 Y87.637 E1.82056
G1 X166.618 Y84.421 E2.00583
G1 X170.665 Y80.954 E2.19193
G1 X174.516 Y77.262 E2.37824
G1 X176.298 Y75.401 E2.46823
G1 X179.837 Y71.376 E2.6554
G1 X184.106 Y65.851 E2.89924
G1 X184.562 Y65.326 E2.92352
G1 X185.075 Y64.857 E2.9478
G1 X185.639 Y64.45 E2.97209
G1 X186.245 Y64.11 E2.99635
G1 X186.887 Y63.842 E3.02065
G1 X187.555 Y63.65 E3.04492
G1 X188.241 Y63.535 E3.06921
G1 X188.891 Y63.5 E3.09195
G1 X229.089 Y63.486 E4.49579
G1 X229.783 Y63.526 E4.52006
G1 X230.468 Y63.645 E4.54434
G1 X231.135 Y63.842 E4.56863
G1 X231.775 Y64.114 E4.59292
G1 X232.38 Y64.458 E4.61722
G1 X232.941 Y64.869 E4.64151
G1 X233.451 Y65.341 E4.66578
G1 X233.903 Y65.869 E4.69005
G1 X234.292 Y66.446 E4.71435
G1 X234.613 Y67.063 E4.73864
G1 X234.86 Y67.713 E4.76293
G1 X235.031 Y68.387 E4.78721
G1 X235.135 Y69.261 E4.81795
G1 X235.241 Y71.602 E4.89979
G1 X235.701 Y76.942 E5.08697
G1 X236.457 Y82.209 E5.27279
G1 X237.512 Y87.442 E5.45922
G1 X238.128 Y89.945 E5.54924
G1 X239.63 Y95.092 E5.73649
G1 X241.412 Y100.121 E5.92282
G1 X243.479 Y105.051 E6.10951
G1 X244.377 Y106.985 E6.18398
G1 X244.633 Y107.632 E6.20828
G1 X244.814 Y108.303 E6.23255
G1 X244.916 Y108.991 E6.25684
G1 X244.94 Y109.533 E6.27579
G1 X244.94 Y179.524 E8.72009
G1 X244.9 Y180.218 E8.74437
G1 X244.781 Y180.903 E8.76865
G1 X244.583 Y181.57 E8.79295
G1 X244.395 Y182.034 E8.81043
G1 X242.87 Y185.378 E8.93879
G1 X241.888 Y187.723 E9.02757
G1 X240.02 Y192.785 E9.216
G1 X238.465 Y197.867 E9.40161
G1 X237.186 Y203.082 E9.58913
G1 X236.681 Y205.604 E9.67895
G1 X235.852 Y210.89 E9.86581
G1 X235.325 Y216.201 E10.0522
G1 X235.127 Y219.849 E10.17979
G1 X235.05 Y220.54 E10.20407
G1 X234.893 Y221.218 E10.22837
G1 X234.66 Y221.873 E10.25265
G1 X234.353 Y222.497 E10.27694
G1 X233.977 Y223.082 E10.30122
G1 X233.536 Y223.619 E10.32549
G1 X233.037 Y224.103 E10.34977
G1 X232.485 Y224.526 E10.37406
G1 X231.888 Y224.883 E10.39835
G1 X231.428 Y225.099 E10.4161
G1 X230.966 Y225.293 E10.4336
G1 X230.884 Y225.327 E10.4367
G1 X229.309 Y225.961 E10.49599
G1 X224.43 Y228.173 E10.68307
G1 X219.739 Y230.628 E10.86798
G1 X215.158 Y233.367 E11.05437
G1 X210.768 Y236.34 E11.23953
G1 X206.54 Y239.566 E11.42526
G1 X202.502 Y243.027 E11.61099
G1 X198.655 Y246.721 E11.79725
G1 X196.859 Y248.596 E11.88793
G1 X193.336 Y252.604 E12.07428
G1 X190.015 Y256.846 E12.26243
G1 X188.468 Y259.003 E12.35513
G1 X188.031 Y259.544 E12.37942
G1 X187.535 Y260.031 E12.40369
G1 X186.986 Y260.458 E12.42798
G1 X186.392 Y260.819 E12.45226
G1 X185.76 Y261.11 E12.47655
G1 X185.099 Y261.326 E12.50084
G1 X184.417 Y261.465 E12.52515
G1 X183.552 Y261.527 E12.55543
G1 X78.567 Y261.523 E16.22184
G1 X77.873 Y261.483 E16.24612
G1 X77.187 Y261.364 E16.27043
G1 X76.521 Y261.166 E16.2947
G1 X75.881 Y260.894 E16.31898
G1 X75.276 Y260.55 E16.34329
G1 X74.716 Y260.139 E16.36755
G1 X74.206 Y259.666 E16.39184
G1 X73.753 Y259.138 E16.41613
G1 X73.364 Y258.561 E16.44044
G1 X73.044 Y257.944 E16.46471
G1 X72.797 Y257.294 E16.48899
G1 X72.627 Y256.62 E16.51327
G1 X72.534 Y255.93 E16.53758
G1 X72.517 Y255.473 E16.55355
G1 X72.518 Y185.491 E18.99754
G1 X72.558 Y184.797 E19.02182
G1 X72.677 Y184.112 E19.0461
G1 X72.875 Y183.445 E19.0704
G1 X73.147 Y182.805 E19.09469
G1 X73.491 Y182.201 E19.11896
G1 X73.902 Y181.64 E19.14325
G1 X74.375 Y181.13 E19.16754
G1 X74.788 Y180.767 E19.18674
G1 X79.982 Y176.611 E19.41905
G1 X83.921 Y173.041 E19.60471
G1 X85.751 Y171.236 E19.69447
G1 X89.415 Y167.301 E19.88225
G1 X92.806 Y163.22 E20.06755
G1 X95.972 Y158.936 E20.25358
G1 X98.879 Y154.497 E20.43889
G1 X101.539 Y149.889 E20.6247
G1 X103.927 Y145.151 E20.81
G1 X106.034 Y140.309 E20.99441
G1 X107.888 Y135.289 E21.1813
G1 X109.44 Y130.217 E21.36654
G1 X110.728 Y124.97 E21.55522
G1 X111.222 Y122.503 E21.64308
G1 X112.052 Y117.21 E21.83019
G1 X112.703 Y110.172 E22.07703
G1 X112.806 Y109.484 E22.10132
G1 X112.988 Y108.813 E22.1256
G1 X113.246 Y108.167 E22.1499
G1 X113.576 Y107.555 E22.17418
G1 X113.974 Y106.985 E22.19846
G1 X114.436 Y106.465 E22.22275
M204 S5000
M205 X30 Y30
G0 F2400 X114.835 Y106.661
M204 S500
M205 X20 Y20
G1 F1200 X115.347 Y106.227 E22.24619
G1 X115.906 Y105.857 E22.2696
G1 X116.506 Y105.556 E22.29304
G1 X117.137 Y105.328 E22.31647
G1 X118.014 Y105.144 E22.34777
G1 X120.932 Y104.771 E22.4505
G1 X126.258 Y103.853 E22.63925
G1 X128.769 Y103.311 E22.72896
G1 X133.986 Y101.947 E22.91728
G1 X139.066 Y100.308 E23.10369
G1 X144.053 Y98.381 E23.2904
G1 X148.914 Y96.18 E23.47676
G1 X153.64 Y93.709 E23.663
G1 X158.228 Y90.967 E23.84966
G1 X162.648 Y87.975 E24.03606
G1 X166.878 Y84.751 E24.2218
G1 X170.951 Y81.262 E24.4091
G1 X174.814 Y77.558 E24.596
G1 X176.609 Y75.684 E24.68663
G1 X180.158 Y71.648 E24.87432
G1 X184.438 Y66.108 E25.11881
G1 X184.879 Y65.602 E25.14225
G1 X185.377 Y65.153 E25.16566
G1 X185.925 Y64.766 E25.18909
G1 X186.515 Y64.447 E25.21252
G1 X187.139 Y64.2 E25.23595
G1 X187.788 Y64.03 E25.25938
G1 X188.452 Y63.937 E25.2828
G1 X188.891 Y63.92 E25.29814
G1 X229.089 Y63.906 E26.70198
G1 X229.759 Y63.946 E26.72542
G1 X230.419 Y64.065 E26.74884
G1 X231.06 Y64.262 E26.77226
G1 X231.674 Y64.533 E26.7957
G1 X232.25 Y64.876 E26.81911
G1 X232.782 Y65.285 E26.84255
G1 X233.261 Y65.754 E26.86596
G1 X233.682 Y66.277 E26.88941
G1 X234.037 Y66.846 E26.91283
G1 X234.322 Y67.453 E26.93625
G1 X234.532 Y68.09 E26.95967
G1 X234.666 Y68.748 E26.98312
G1 X234.715 Y69.28 E27.00178
G1 X234.822 Y71.632 E27.084
G1 X235.283 Y76.985 E27.27164
G1 X236.043 Y82.28 E27.45845
G1 X237.101 Y87.529 E27.64545
G1 X237.725 Y90.066 E27.73669
G1 X239.228 Y95.217 E27.92408
G1 X241.015 Y100.259 E28.1109
G1 X243.101 Y105.234 E28.2993
G1 X243.996 Y107.162 E28.37353
G1 X244.242 Y107.786 E28.39695
G1 X244.412 Y108.435 E28.42038
G1 X244.503 Y109.1 E28.44382
G1 X244.52 Y109.533 E28.45896
G1 X244.52 Y179.524 E30.90326
G1 X244.48 Y180.194 E30.9267
G1 X244.361 Y180.854 E30.95012
G1 X244.164 Y181.495 E30.97354
G1 X244.013 Y181.859 E30.9873
G1 X242.494 Y185.191 E31.11519
G1 X241.495 Y187.575 E31.20546
G1 X239.619 Y192.66 E31.39474
G1 X238.061 Y197.75 E31.58064
G1 X236.774 Y202.995 E31.76925
G1 X236.268 Y205.525 E31.85936
G1 X235.436 Y210.837 E32.04713
G1 X234.907 Y216.158 E32.23387
G1 X234.708 Y219.826 E32.36216
G1 X234.632 Y220.493 E32.3856
G1 X234.477 Y221.145 E32.40901
G1 X234.245 Y221.775 E32.43245
G1 X233.94 Y222.373 E32.4559
G1 X233.567 Y222.93 E32.47931
G1 X233.13 Y223.438 E32.50271
G1 X232.635 Y223.892 E32.52617
G1 X232.09 Y224.283 E32.54959
G1 X231.266 Y224.712 E32.58203
G1 X230.804 Y224.906 E32.59953
G1 X230.727 Y224.937 E32.60243
G1 X229.167 Y225.565 E32.66116
G1 X224.243 Y227.797 E32.84996
G1 X219.516 Y230.271 E33.03629
G1 X214.935 Y233.01 E33.22269
G1 X210.526 Y235.996 E33.40865
G1 X206.281 Y239.235 E33.59513
G1 X202.217 Y242.718 E33.78205
G1 X198.357 Y246.425 E33.96895
G1 X196.56 Y248.301 E34.05967
G1 X193.003 Y252.347 E34.24781
G1 X189.684 Y256.587 E34.43586
G1 X188.127 Y258.758 E34.52916
G1 X187.704 Y259.279 E34.55259
G1 X187.222 Y259.746 E34.57603
G1 X186.689 Y260.152 E34.59943
G1 X186.11 Y260.492 E34.62288
G1 X185.496 Y260.761 E34.64629
G1 X184.853 Y260.955 E34.66975
G1 X184.193 Y261.07 E34.69314
G1 X183.552 Y261.107 E34.71557
G1 X78.567 Y261.103 E38.38197
G1 X77.897 Y261.063 E38.40541
G1 X77.237 Y260.944 E38.42883
G1 X76.596 Y260.747 E38.45225
G1 X75.983 Y260.475 E38.47567
G1 X75.406 Y260.132 E38.49911
G1 X74.874 Y259.723 E38.52255
G1 X74.395 Y259.253 E38.54599
G1 X73.975 Y258.73 E38.56941
G1 X73.62 Y258.161 E38.59283
G1 X73.336 Y257.554 E38.61624
G1 X73.125 Y256.917 E38.63967
G1 X72.992 Y256.259 E38.66311
G1 X72.937 Y255.473 E38.69063
G1 X72.938 Y185.491 E41.13462
G1 X72.978 Y184.821 E41.15806
G1 X73.097 Y184.161 E41.18148
G1 X73.294 Y183.52 E41.2049
G1 X73.566 Y182.907 E41.22832
G1 X73.909 Y182.33 E41.25177
G1 X74.318 Y181.798 E41.2752
G1 X74.787 Y181.319 E41.29861
G1 X75.051 Y181.095 E41.3107
G1 X80.248 Y176.938 E41.54312
G1 X84.214 Y173.343 E41.73006
G1 X86.057 Y171.524 E41.82049
G1 X89.733 Y167.577 E42.00885
G1 X93.136 Y163.48 E42.19485
G1 X96.314 Y159.18 E42.38159
G1 X99.237 Y154.717 E42.5679
G1 X101.906 Y150.093 E42.75436
G1 X104.305 Y145.334 E42.94048
G1 X106.425 Y140.462 E43.12603
G1 X108.289 Y135.413 E43.31399
G1 X109.844 Y130.334 E43.49949
G1 X111.133 Y125.083 E43.68832
G1 X111.639 Y122.554 E43.77839
G1 X112.469 Y117.265 E43.96536
G1 X113.121 Y110.211 E44.21276
G1 X113.222 Y109.548 E44.23618
G1 X113.402 Y108.901 E44.25963
G1 X113.657 Y108.281 E44.28304
G1 X113.984 Y107.695 E44.30648
G1 X114.379 Y107.153 E44.3299
G1 X114.835 Y106.661 E44.35333
M204 S5000
M205 X30 Y30
G0 F2400 X115.233 Y106.864
M204 S500
M205 X20 Y20
G1 F1200 X115.738 Y106.462 E44.37587
G1 X116.288 Y106.125 E44.3984
G1 X116.876 Y105.859 E44.42094
G1 X117.492 Y105.667 E44.44347
G1 X118.067 Y105.561 E44.46389
G1 X120.991 Y105.188 E44.56683
G1 X126.345 Y104.265 E44.75657
G1 X128.846 Y103.724 E44.84593
G1 X134.116 Y102.347 E45.03615
G1 X139.203 Y100.706 E45.22282
G1 X144.219 Y98.768 E45.41062
G1 X149.095 Y96.56 E45.59755
G1 X153.848 Y94.074 E45.78487
G1 X158.445 Y91.327 E45.97189
G1 X162.893 Y88.317 E46.15946
G1 X167.154 Y85.068 E46.34659
G1 X171.218 Y81.587 E46.53346
G1 X175.122 Y77.844 E46.72234
G1 X176.919 Y75.967 E46.81309
G1 X180.479 Y71.919 E47.00135
G1 X184.77 Y66.365 E47.24646
G1 X185.196 Y65.879 E47.26903
G1 X185.678 Y65.45 E47.29157
G1 X186.209 Y65.084 E47.31409
G1 X186.782 Y64.787 E47.33663
G1 X187.387 Y64.562 E47.35917
G1 X188.015 Y64.415 E47.38169
G1 X188.891 Y64.34 E47.4124
G1 X229.089 Y64.326 E48.81624
G1 X229.733 Y64.366 E48.83877
G1 X230.367 Y64.485 E48.8613
G1 X230.982 Y64.681 E48.88384
G1 X231.568 Y64.952 E48.90639
G1 X232.115 Y65.294 E48.92892
G1 X232.617 Y65.7 E48.95147
G1 X233.064 Y66.165 E48.97399
G1 X233.45 Y66.682 E48.99653
G1 X233.769 Y67.243 E49.01906
G1 X234.017 Y67.839 E49.04161
G1 X234.189 Y68.461 E49.06414
G1 X234.296 Y69.299 E49.09365
G1 X234.403 Y71.663 E49.17629
G1 X234.867 Y77.044 E49.36491
G1 X235.629 Y82.353 E49.55222
G1 X236.69 Y87.616 E49.73971
G1 X237.318 Y90.171 E49.8316
G1 X238.829 Y95.347 E50.01991
G1 X240.62 Y100.403 E50.20723
G1 X242.723 Y105.418 E50.39714
G1 X243.615 Y107.339 E50.47111
G1 X243.85 Y107.94 E50.49365
G1 X244.009 Y108.565 E50.51617
G1 X244.09 Y109.206 E50.53873
G1 X244.1 Y109.533 E50.55016
G1 X244.1 Y179.524 E52.99446
G1 X244.06 Y180.168 E53.017
G1 X243.941 Y180.802 E53.03953
G1 X243.631 Y181.685 E53.07221
G1 X242.112 Y185.017 E53.20009
G1 X241.102 Y187.428 E53.29138
G1 X239.223 Y192.519 E53.4809
G1 X237.653 Y197.649 E53.66826
G1 X236.364 Y202.904 E53.85722
G1 X235.855 Y205.451 E53.94793
G1 X235.019 Y210.783 E54.13641
G1 X234.487 Y216.14 E54.32442
G1 X234.288 Y219.803 E54.45253
G1 X234.214 Y220.444 E54.47506
G1 X234.06 Y221.071 E54.49761
G1 X233.83 Y221.674 E54.52015
G1 X233.528 Y222.244 E54.54268
G1 X233.157 Y222.772 E54.56521
G1 X232.724 Y223.251 E54.58776
G1 X232.235 Y223.672 E54.6103
G1 X231.698 Y224.029 E54.63282
G1 X231.103 Y224.325 E54.65602
G1 X230.641 Y224.519 E54.67352
G1 X230.57 Y224.548 E54.6762
G1 X228.976 Y225.19 E54.73622
G1 X224.069 Y227.414 E54.92436
G1 X219.313 Y229.903 E55.11183
G1 X214.721 Y232.649 E55.29868
G1 X210.265 Y235.667 E55.48663
G1 X206.012 Y238.912 E55.67346
G1 X201.94 Y242.402 E55.86075
G1 X198.06 Y246.128 E56.04861
G1 X196.249 Y248.018 E56.14003
G1 X192.679 Y252.08 E56.32889
G1 X189.362 Y256.316 E56.51678
G1 X187.786 Y258.514 E56.61123
G1 X187.378 Y259.014 E56.63377
G1 X186.911 Y259.459 E56.6563
G1 X186.393 Y259.844 E56.67884
G1 X185.832 Y260.162 E56.70136
G1 X185.235 Y260.408 E56.72391
G1 X184.612 Y260.578 E56.74646
G1 X183.974 Y260.67 E56.76897
G1 X183.552 Y260.687 E56.78372
G1 X78.567 Y260.683 E60.45013
G1 X77.923 Y260.643 E60.47266
G1 X77.289 Y260.524 E60.49519
G1 X76.674 Y260.327 E60.51774
G1 X76.089 Y260.056 E60.54026
G1 X75.541 Y259.714 E60.56282
G1 X75.04 Y259.308 E60.58534
G1 X74.593 Y258.842 E60.60789
G1 X74.207 Y258.325 E60.63042
G1 X73.888 Y257.764 E60.65296
G1 X73.64 Y257.168 E60.6755
G1 X73.469 Y256.546 E60.69803
G1 X73.375 Y255.908 E60.72055
G1 X73.357 Y255.473 E60.73576
G1 X73.358 Y185.491 E63.17975
G1 X73.398 Y184.847 E63.20228
G1 X73.517 Y184.213 E63.22481
G1 X73.714 Y183.598 E63.24736
G1 X73.985 Y183.013 E63.26988
G1 X74.327 Y182.465 E63.29244
G1 X74.733 Y181.964 E63.31496
G1 X75.313 Y181.423 E63.34266
G1 X80.52 Y177.257 E63.57554
G1 X84.506 Y173.644 E63.76342
G1 X86.362 Y171.814 E63.85444
G1 X90.05 Y167.854 E64.04343
G1 X93.468 Y163.739 E64.23024
G1 X96.652 Y159.431 E64.41732
G1 X99.601 Y154.928 E64.60531
G1 X102.273 Y150.297 E64.79202
G1 X104.686 Y145.51 E64.97924
G1 X106.816 Y140.617 E65.16561
G1 X108.683 Y135.56 E65.35386
G1 X110.252 Y130.435 E65.54105
G1 X111.544 Y125.17 E65.73037
G1 X112.052 Y122.633 E65.82073
G1 X112.885 Y117.323 E66.00844
G1 X113.539 Y110.249 E66.25654
G1 X113.638 Y109.612 E66.27905
G1 X113.815 Y108.991 E66.3016
G1 X114.068 Y108.397 E66.32415
G1 X114.392 Y107.839 E66.34669
G1 X114.782 Y107.326 E66.36919
G1 X115.233 Y106.864 E66.39174
M204 S5000
M205 X30 Y30
G1 F2400 E58.39174
G0 F2400 X119.361 Y110.055
G0 X119.361 Y111.364
G0 X126.817 Y180.02
G0 X126.887 Y180.09
M204 S500
M205 X20 Y20
;TYPE:WALL-INNER
G1 F2400 E66.39174
G1 F1200 X119.347 Y180.09 E66.65506
G1 X119.347 Y111.35 E69.05567
G1 X126.887 Y111.35 E69.319
G1 X126.887 Y180.09 E71.71961
M204 S5000
M205 X30 Y30
G0 F2400 X127.307 Y180.51
M204 S500
M205 X20 Y20
;TYPE:WALL-OUTER
G1 F1200 X118.927 Y180.51 E72.01227
G1 X118.927 Y110.93 E74.44222
G1 X127.307 Y110.93 E74.73488
G1 X127.307 Y180.51 E77.16483
M204 S5000
M205 X30 Y30
G0 F2400 X127.107 Y180.51
G0 X126.817 Y180.02
G0 X126.477 Y179.68
M204 S500
M205 X20 Y20
;TYPE:SKIN
G1 F1200 X119.757 Y179.68 E77.39951
G1 X119.757 Y111.76 E79.77149
G1 X126.477 Y111.76 E80.00618
G1 X126.477 Y179.68 E82.37816
M204 S5000
M205 X30 Y30
G0 F2400 X120.134 Y179.301
M204 S500
M205 X20 Y20
G1 F1200 X120.498 Y179.301 E82.39087
G1 X120.133 Y178.936 E82.40889
M204 S5000
M205 X30 Y30
G0 F2400 X120.498 Y179.301
M204 S500
M205 X20 Y20
G1 F1200 X121.092 Y179.301 E82.42964
G1 X120.133 Y178.342 E82.477
G1 X120.133 Y177.748 E82.49775
G1 X121.686 Y179.301 E82.57445
G1 X122.279 Y179.301 E82.59516
G1 X120.133 Y177.154 E82.70117
G1 X120.133 Y176.561 E82.72188
G1 X122.873 Y179.301 E82.8572
G1 X123.467 Y179.301 E82.87795
G1 X120.133 Y175.967 E83.04261
G1 X120.133 Y175.373 E83.06336
G1 X124.061 Y179.301 E83.25735
G1 X124.655 Y179.301 E83.2781
G1 X120.133 Y174.779 E83.50143
G1 X120.133 Y174.185 E83.52218
G1 X125.249 Y179.301 E83.77485
G1 X125.843 Y179.301 E83.7956
G1 X120.133 Y173.591 E84.07761
G1 X120.133 Y172.997 E84.09835
G1 X126.099 Y178.962 E84.39298
G1 X126.099 Y178.368 E84.41372
G1 X120.133 Y172.403 E84.70835
G1 X120.133 Y171.809 E84.7291
G1 X126.099 Y177.774 E85.02373
G1 X126.099 Y177.18 E85.04447
G1 X120.133 Y171.215 E85.3391
G1 X120.133 Y170.621 E85.35984
G1 X126.099 Y176.586 E85.65447
G1 X126.099 Y175.992 E85.67522
G1 X120.133 Y170.027 E85.96985
G1 X120.133 Y169.433 E85.99059
G1 X126.099 Y175.398 E86.28522
G1 X126.099 Y174.804 E86.30596
G1 X120.133 Y168.839 E86.60059
G1 X120.133 Y168.245 E86.62134
G1 X126.099 Y174.21 E86.91596
G1 X126.099 Y173.616 E86.93671
G1 X120.133 Y167.651 E87.23134
